svg/u1f475_1f3fd.svg

<svg viewBox="0 0 128 128" xmlns="http://www.w3.org/2000/svg">
  <path id="ears" d="M99.92,64.57H28.08C20.34,64.57,14,71.51,14,79.99s6.34,15.42,14.08,15.42h71.84 c7.75,0,14.08-6.94,14.08-15.42S107.66,64.57,99.92,64.57z" fill="#99674F"/>
  <path id="head" d="M64,12.54c-34.67,0-44.06,24.33-44.06,59.35c0,34.83,17.06,52.04,44.06,52.04 s44.06-17.22,44.06-52.04C108.06,36.87,98.67,12.54,64,12.54z" fill="#BA8D68"/>
  <path id="wrinkle_5_" d="M42.98,57.37c-0.6,0-1.16-0.36-1.4-0.95c-0.31-0.77,0.07-1.64,0.84-1.95 c0.37-0.15,9.1-3.54,21.24-3.54c12.13,0,21.49,3.39,21.88,3.53c0.78,0.29,1.18,1.15,0.89,1.92c-0.29,0.78-1.15,1.18-1.93,0.89 c-0.09-0.03-9.28-3.35-20.84-3.35c-11.58,0-20.05,3.3-20.14,3.33C43.35,57.34,43.16,57.37,42.98,57.37z" fill="#91674D"/>
  <path id="wrinkle_4_" d="M78.97,48.96c-0.15,0-0.3-0.02-0.45-0.07c-0.07-0.02-6.86-2.14-14.52-2.14 s-14.45,2.12-14.52,2.14c-0.79,0.25-1.63-0.19-1.88-0.98s0.19-1.63,0.98-1.88c0.29-0.09,7.28-2.28,15.42-2.28s15.13,2.19,15.42,2.28 c0.79,0.25,1.23,1.09,0.98,1.88C80.2,48.55,79.61,48.96,78.97,48.96z" fill="#91674D"/>
  <path id="wrinkle_3_" d="M42.91,90.5c-2.63,0-5.27-0.85-7.28-2.54c-0.63-0.53-0.71-1.48-0.18-2.11 c0.53-0.63,1.48-0.71,2.11-0.18c2.95,2.49,7.74,2.49,10.69,0c0.63-0.54,1.58-0.46,2.11,0.18c0.53,0.63,0.46,1.58-0.18,2.11 C48.18,89.65,45.55,90.5,42.91,90.5z" fill="#91674D"/>
  <path id="wrinkle_2_" d="M85.09,90.5c-2.64,0-5.27-0.85-7.28-2.54c-0.63-0.53-0.71-1.48-0.18-2.11 c0.53-0.63,1.48-0.71,2.11-0.18c2.95,2.49,7.74,2.49,10.69,0c0.63-0.54,1.58-0.46,2.11,0.18c0.54,0.63,0.46,1.58-0.18,2.11 C90.36,89.65,87.73,90.5,85.09,90.5z" fill="#91674D"/>
  <path id="wrinkle_1_" d="M40.63,105.31c-0.38,0-0.77-0.15-1.06-0.44c-0.59-0.59-0.59-1.54,0-2.12l9.53-9.53 c0.59-0.59,1.53-0.59,2.12,0s0.59,1.54,0,2.12l-9.53,9.53C41.4,105.16,41.01,105.31,40.63,105.31z" fill="#91674D"/>
  <path id="wrinkle" d="M87.37,105.31c-0.38,0-0.77-0.15-1.06-0.44l-9.53-9.53c-0.59-0.59-0.59-1.54,0-2.12 s1.54-0.59,2.12,0l9.53,9.53c0.59,0.59,0.59,1.54,0,2.12C88.14,105.16,87.75,105.31,87.37,105.31z" fill="#91674D"/>
  <g id="bun">
    <path d="M63.83,4.1c-15.32,0-27.74,7.18-27.74,16.04s12.42,13.04,27.74,13.04S91.57,29,91.57,20.14 C91.58,11.28,79.16,4.1,63.83,4.1z" fill="#9E9E9E"/>
  </g>
  <g id="gray_x5F_eyebrows">
    <path d="M95.75,65.29c-1.23-1.63-4.09-4.01-9.62-4.01s-8.39,2.38-9.62,4.01c-0.55,0.72-0.41,1.56-0.03,2.06 c0.35,0.47,1.39,0.9,2.53,0.51s3.38-1.54,7.12-1.57c3.74,0.03,5.98,1.18,7.12,1.57s2.18-0.05,2.53-0.51 C96.15,66.85,96.29,66.01,95.75,65.29z" fill="#9E9E9E"/>
    <path d="M51.89,65.29c-1.23-1.63-4.09-4.01-9.62-4.01s-8.39,2.38-9.62,4.01c-0.55,0.72-0.41,1.56-0.03,2.06 c0.35,0.47,1.39,0.9,2.53,0.51s3.38-1.54,7.12-1.57c3.74,0.03,5.98,1.18,7.12,1.57s2.18-0.05,2.53-0.51 C52.29,66.85,52.43,66.01,51.89,65.29z" fill="#9E9E9E"/>
  </g>
  <g id="gray_x5F_hair">
    <radialGradient id="SVGID_1_" cx="63.4782" cy="58.3519" gradientTransform="matrix(1 6.789380e-03 -5.884754e-03 0.8667 0.3448 9.3451)" gradientUnits="userSpaceOnUse" r="63.8472">
      <stop offset="0.44" stop-color="#9E9E9E"/>
      <stop offset="1" stop-color="#E0E0E0"/>
    </radialGradient>
    <path d="M100.62,27.22C91.75,17.49,69.01,11.65,64,16.82c-5.01-5.17-27.75,0.67-36.62,10.4 c-9.8,10.74-12.03,29.42-8.24,45.15c0.35,1.45,3.95,1.47,3.95-0.02c0-10.35,8.17-25.83,19.66-29.08 c5.54-1.57,17.69-1.98,21.25-9.08c3.56,7.11,15.71,7.52,21.25,9.08c11.49,3.25,19.66,18.48,19.66,29.08c0,1.49,3.6,1.47,3.95,0.02 C112.65,56.64,110.42,37.96,100.62,27.22z" fill="url(#SVGID_1_)"/>
  </g>
  <g id="eyes">
    <ellipse cx="42.26" cy="77.34" fill="#49362E" rx="6.48" ry="6.71"/>
    <ellipse cx="86.12" cy="77.34" fill="#49362E" rx="6.48" ry="6.71"/>
  </g>
  <path id="nose" d="M69.07,89.56c-0.14-0.06-0.28-0.09-0.42-0.11h-9.3c-0.14,0.02-0.28,0.05-0.42,0.11 c-0.84,0.34-1.31,1.22-0.91,2.14c0.4,0.93,2.25,3.54,5.98,3.54s5.58-2.61,5.98-3.54S69.92,89.9,69.07,89.56z" fill="#99674F"/>
  <path id="mouth" d="M75.01,99.97c-4.19,2.49-17.91,2.49-22.1,0c-2.4-1.43-4.86,0.76-3.86,2.94 c0.98,2.15,8.47,7.13,14.95,7.13c6.47,0,13.87-4.98,14.85-7.13C79.84,100.72,77.42,98.54,75.01,99.97z" fill="#5D4037"/>
</svg>

<svg viewBox="0 0 128 128" xmlns="http://www.w3.org/2000/svg">
  <defs>
    <radialGradient id="SVGID_1_" cx="63.886433" cy="69.131095" gradientTransform="matrix(1 0.006789 -0.005885 0.8667 0 0)" gradientUnits="userSpaceOnUse" r="63.8472">
      <stop offset="0.44" stop-color="#9E9E9E"/>
      <stop offset="1" stop-color="#E0E0E0"/>
    </radialGradient>
  </defs>
  <path id="ears" d="M99.92,64.57 L28.08,64.57 C20.34,64.57 14,71.51 14,79.99 C14,88.47 20.34,95.41 28.08,95.41 L99.92,95.41 C107.67,95.41 114,88.47 114,79.99 C114,71.51 107.66,64.57 99.92,64.57 Z" fill="#99674F"/>
  <path id="head" d="M64,12.54 C29.33,12.54 19.94,36.87 19.94,71.89 C19.94,106.72 37,123.93 64,123.93 C91,123.93 108.06,106.71 108.06,71.89 C108.06,36.87 98.67,12.54 64,12.54 Z" fill="#BA8D68"/>
  <path id="wrinkle_5_" d="M42.98,57.37 C42.38,57.37 41.82,57.01 41.58,56.42 C41.27,55.65 41.65,54.78 42.42,54.47 C42.79,54.32 51.52,50.93 63.66,50.93 C75.79,50.93 85.15,54.32 85.54,54.46 C86.32,54.75 86.72,55.61 86.43,56.38 C86.14,57.16 85.28,57.56 84.5,57.27 C84.41,57.24 75.22,53.92 63.66,53.92 C52.08,53.92 43.61,57.22 43.52,57.25 C43.35,57.34 43.16,57.37 42.98,57.37 Z" fill="#91674D"/>
  <path id="wrinkle_4_" d="M78.97,48.96 C78.82,48.96 78.67,48.94 78.52,48.89 C78.45,48.87 71.66,46.75 64,46.75 C56.34,46.75 49.55,48.87 49.48,48.89 C48.69,49.14 47.85,48.7 47.6,47.91 C47.35,47.12 47.79,46.28 48.58,46.03 C48.87,45.94 55.86,43.75 64,43.75 C72.14,43.75 79.13,45.94 79.42,46.03 C80.21,46.28 80.65,47.12 80.4,47.91 C80.2,48.55 79.61,48.96 78.97,48.96 Z" fill="#91674D"/>
  <path id="wrinkle_3_" d="M42.91,90.5 C40.28,90.5 37.64,89.65 35.63,87.96 C35,87.43 34.92,86.48 35.45,85.85 C35.98,85.22 36.93,85.14 37.56,85.67 C40.51,88.16 45.3,88.16 48.25,85.67 C48.88,85.13 49.83,85.21 50.36,85.85 C50.89,86.48 50.82,87.43 50.18,87.96 C48.18,89.65 45.55,90.5 42.91,90.5 Z" fill="#91674D"/>
  <path id="wrinkle_2_" d="M85.09,90.5 C82.45,90.5 79.82,89.65 77.81,87.96 C77.18,87.43 77.1,86.48 77.63,85.85 C78.16,85.22 79.11,85.14 79.74,85.67 C82.69,88.16 87.48,88.16 90.43,85.67 C91.06,85.13 92.01,85.21 92.54,85.85 C93.08,86.48 93,87.43 92.36,87.96 C90.36,89.65 87.73,90.5 85.09,90.5 Z" fill="#91674D"/>
  <path id="wrinkle_1_" d="M40.63,105.31 C40.25,105.31 39.86,105.16 39.57,104.87 C38.98,104.28 38.98,103.33 39.57,102.75 L49.1,93.22 C49.69,92.63 50.63,92.63 51.22,93.22 C51.81,93.81 51.81,94.76 51.22,95.34 L41.69,104.87 C41.4,105.16 41.01,105.31 40.63,105.31 Z" fill="#91674D"/>
  <path id="wrinkle" d="M87.37,105.31 C86.99,105.31 86.6,105.16 86.31,104.87 L76.78,95.34 C76.19,94.75 76.19,93.8 76.78,93.22 C77.37,92.64 78.32,92.63 78.9,93.22 L88.43,102.75 C89.02,103.34 89.02,104.29 88.43,104.87 C88.14,105.16 87.75,105.31 87.37,105.31 Z" fill="#91674D"/>
  <path d="M63.83,4.1 C48.51,4.1 36.09,11.28 36.09,20.14 C36.09,29 48.51,33.18 63.83,33.18 C79.15,33.18 91.57,29 91.57,20.14 C91.58,11.28 79.16,4.1 63.83,4.1 Z" fill="#9E9E9E"/>
  <path d="M95.75,65.29 C94.52,63.66 91.66,61.28 86.13,61.28 C80.6,61.28 77.74,63.66 76.51,65.29 C75.96,66.01 76.1,66.85 76.48,67.35 C76.83,67.82 77.87,68.25 79.01,67.86 C80.15,67.47 82.39,66.32 86.13,66.29 C89.87,66.32 92.11,67.47 93.25,67.86 C94.39,68.25 95.43,67.81 95.78,67.35 C96.15,66.85 96.29,66.01 95.75,65.29 Z" fill="#9E9E9E"/>
  <path d="M51.89,65.29 C50.66,63.66 47.8,61.28 42.27,61.28 C36.74,61.28 33.88,63.66 32.65,65.29 C32.1,66.01 32.24,66.85 32.62,67.35 C32.97,67.82 34.01,68.25 35.15,67.86 C36.29,67.47 38.53,66.32 42.27,66.29 C46.01,66.32 48.25,67.47 49.39,67.86 C50.53,68.25 51.57,67.81 51.92,67.35 C52.29,66.85 52.43,66.01 51.89,65.29 Z" fill="#9E9E9E"/>
  <path d="M100.62,27.22 C91.75,17.49 69.01,11.65 64,16.82 C58.99,11.65 36.25,17.49 27.38,27.22 C17.58,37.96 15.35,56.64 19.14,72.37 C19.49,73.82 23.09,73.84 23.09,72.35 C23.09,62 31.26,46.52 42.75,43.27 C48.29,41.7 60.44,41.29 64,34.19 C67.56,41.3 79.71,41.71 85.25,43.27 C96.74,46.52 104.91,61.75 104.91,72.35 C104.91,73.84 108.51,73.82 108.86,72.37 C112.65,56.64 110.42,37.96 100.62,27.22 Z" fill="url(#SVGID_1_)"/>
  <path d="M48.74,77.34 A6.48 6.71 0 1 1 35.78,77.34 A6.48 6.71 0 1 1 48.74,77.34 Z" fill="#49362E"/>
  <path d="M92.6,77.34 A6.48 6.71 0 1 1 79.64,77.34 A6.48 6.71 0 1 1 92.6,77.34 Z" fill="#49362E"/>
  <path id="nose" d="M69.07,89.56 C68.93,89.5 68.79,89.47 68.65,89.45 L59.35,89.45 C59.21,89.47 59.07,89.5 58.93,89.56 C58.09,89.9 57.62,90.78 58.02,91.7 C58.42,92.63 60.27,95.24 64,95.24 C67.73,95.24 69.58,92.63 69.98,91.7 C70.38,90.77 69.92,89.9 69.07,89.56 Z" fill="#99674F"/>
  <path id="mouth" d="M75.01,99.97 C70.82,102.46 57.1,102.46 52.91,99.97 C50.51,98.54 48.05,100.73 49.05,102.91 C50.03,105.06 57.52,110.04 64,110.04 C70.47,110.04 77.87,105.06 78.85,102.91 C79.84,100.72 77.42,98.54 75.01,99.97 Z" fill="#5D4037"/>
</svg>
